X:70
T:Little Tea
C:Played by V.C.A.
M:6/8
L:1/8
K:D
F/G/|Afe dcd|BGB e2d|cBc ABc|dfd A2F/G/|Afe dcd|BGB e2d|cBc ABc|d2f d2::
F/G/|AFA dcd|BGB e2d|cBc ABc|dfd A2F/G/|AFA dcd|BGB e2d|cBc ABc|d2f d2:|
%%%newpage
